X:123
M:6/8
L:1/8
K:G
d|:BGE EFE|AFD DFA|BGE EGE|FGF d3|BGE EGE|AFD DFA|
d^cB cBA|BAF d3:|
d2B BdB|^c2A AcA|d2B BdB|dBd e2f|d2B BdB|A2F FGF|BGE EGE|

